assets/svg/stop.svg

<?xml version="1.0" encoding="UTF-8"?>
<svg width="1000px" height="1000px" viewBox="0 0 1000 1000" version="1.1" xmlns="http://www.w3.org/2000/svg" xmlns:xlink="http://www.w3.org/1999/xlink">
    <!-- Generator: sketchtool 52.4 (67378) - http://www.bohemiancoding.com/sketch -->
    <title>stop</title>
    <desc>Created with sketchtool.</desc>
    <g id="新版图标" stroke="none" stroke-width="1" fill="none" fill-rule="evenodd">
        <g id="stop" fill="#323233">
            <g id="圆角-停止-线-">
                <path d="M362.144476,360.863353 L638.922253,360.863353 C639.198396,360.863353 639.422253,361.087211 639.422253,361.363353 L639.422253,638.141131 C639.422253,638.417274 639.198396,638.641131 638.922253,638.641131 L362.144476,638.641131 C361.868333,638.641131 361.644476,638.417274 361.644476,638.141131 L361.644476,361.363353 C361.644476,361.087211 361.868333,360.863353 362.144476,360.863353 Z M500,888.888889 C714.777403,888.888889 888.888889,714.777403 888.888889,500 C888.888889,285.222597 714.777403,111.111111 500,111.111111 C285.222597,111.111111 111.111111,285.222597 111.111111,500 C111.111111,714.777403 285.222597,888.888889 500,888.888889 Z M500,944.444444 C254.540111,944.444444 55.5555556,745.459889 55.5555556,500 C55.5555556,254.540111 254.540111,55.5555556 500,55.5555556 C745.459889,55.5555556 944.444444,254.540111 944.444444,500 C944.444444,745.459889 745.459889,944.444444 500,944.444444 Z" id="Rectangle-19"></path>
            </g>
        </g>
    </g>
</svg>

<svg width="1000" height="1000" xmlns="http://www.w3.org/2000/svg"><path d="M362.144 360.863h276.778a.5.5 0 0 1 .5.5v276.778a.5.5 0 0 1-.5.5H362.144a.5.5 0 0 1-.5-.5V361.363a.5.5 0 0 1 .5-.5zM500 888.89c214.777 0 388.889-174.112 388.889-388.889 0-214.777-174.112-388.889-388.889-388.889-214.777 0-388.889 174.112-388.889 388.889 0 214.777 174.112 388.889 388.889 388.889zm0 55.555C254.54 944.444 55.556 745.46 55.556 500S254.54 55.556 500 55.556 944.444 254.54 944.444 500 745.46 944.444 500 944.444z" fill="#323233" fill-rule="evenodd"/></svg>
